X: 43468
T: Yellow Flail, The
R: jig
M: 6/8
K: Gmajor
|:d/c/|B2 B GFG|D2 E FEF|GAG GAB|cAG FGA|
BcB BAG|ABA ABc|dcB AGF|A2 G G2:|
|:D|G2 A B2 c|ded d2 c|BAG FGA|cAG F2 a|
BcB BAG|ABA ABc|dcB AGF|A2 G G2:|

